jsapp/svg-icons/camera.svg

<svg height="40" viewBox="0 0 40 40" width="40" xmlns="http://www.w3.org/2000/svg"><path d="m19.9905303 24c-1.6524337 0-2.9971591-1.346-2.9971591-3s1.3447254-3 2.9971591-3 2.9971591 1.346 2.9971591 3-1.3447254 3-2.9971591 3m0-8c-2.7543892 0-4.9952651 2.243-4.9952651 5s2.2408759 5 4.9952651 5 4.9952652-2.243 4.9952652-5-2.240876-5-4.9952652-5m-7.9924242 11v-11h4.5307055l1.998106-3h2.9272254l1.9981061 3h4.5307054l.0009991 11zm15.9848484-13h-3.4617187l-1.4046686-2.11c-.3716477-.557-.9930587-.89-1.6624242-.89h-2.9272254c-.6693655 0-1.2907765.333-1.6624242.89l-1.4046686 2.11h-3.4617187c-1.1019555 0-1.9981061.897-1.9981061 2v11c0 1.102.8961506 2 1.9981061 2h15.9848484c1.1019555 0 1.9981061-.898 1.9981061-2v-11c0-1.103-.8961506-2-1.9981061-2z" fill-rule="evenodd"/></svg>

<?xml version="1.0" encoding="UTF-8"?>
<svg width="40px" height="40px" viewBox="0 0 40 40" version="1.1" xmlns="http://www.w3.org/2000/svg" xmlns:xlink="http://www.w3.org/1999/xlink">
    <!-- Generator: Sketch 50.2 (55047) - http://www.bohemiancoding.com/sketch -->
    <title>Icons/camera</title>
    <desc>Created with Sketch.</desc>
    <defs>
        <path d="M19.9905303,24 C18.3380966,24 16.9933712,22.654 16.9933712,21 C16.9933712,19.346 18.3380966,18 19.9905303,18 C21.642964,18 22.9876894,19.346 22.9876894,21 C22.9876894,22.654 21.642964,24 19.9905303,24 M19.9905303,16 C17.2361411,16 14.9952652,18.243 14.9952652,21 C14.9952652,23.757 17.2361411,26 19.9905303,26 C22.7449195,26 24.9857955,23.757 24.9857955,21 C24.9857955,18.243 22.7449195,16 19.9905303,16 M11.9981061,27 L11.9981061,16 L16.5288116,16 L18.5269176,13 L21.454143,13 L23.4522491,16 L27.9829545,16 L27.9839536,27 L11.9981061,27 Z M27.9829545,14 L24.5212358,14 L23.1165672,11.89 C22.7449195,11.333 22.1235085,11 21.454143,11 L18.5269176,11 C17.8575521,11 17.2361411,11.333 16.8644934,11.89 L15.4598248,14 L11.9981061,14 C10.8961506,14 10,14.897 10,16 L10,27 C10,28.102 10.8961506,29 11.9981061,29 L27.9829545,29 C29.08491,29 29.9810606,28.102 29.9810606,27 L29.9810606,16 C29.9810606,14.897 29.08491,14 27.9829545,14 L27.9829545,14 Z" id="path-1"></path>
    </defs>
    <g id="Icons/camera" stroke="none" stroke-width="1" fill="none" fill-rule="evenodd">
        <mask id="mask-2" fill="white">
            <use xlink:href="#path-1"></use>
        </mask>
        <use id="Mask" fill="#000000" xlink:href="#path-1"></use>
    </g>
</svg>
